svgs/revolt.svg

<svg width="192" height="192" viewBox="0 0 192 192" fill="none" xmlns="http://www.w3.org/2000/svg"><path d="M126.5 70.5c0 11.461-6.159 18.5-19.5 18.5H85V52h22c13.337 0 19.5 7.66 19.5 18.5ZM28 22l21 31v117h36v-56h8.5l30.5 56h40l-34-59c19.42-4.726 33.436-22.018 33-42 0-25.427-18.152-47-54-47H28Z" stroke="#000" stroke-width="12" stroke-linecap="round" stroke-linejoin="round"/></svg>

<svg width="192" height="192" viewBox="0 0 192 192" fill="none" xmlns="http://www.w3.org/2000/svg">
<path d="M126.5 70.5C126.5 81.9613 120.341 89 107 89H85V52H107C120.337 52 126.5 59.6597 126.5 70.5ZM28 22L49 53V170H85V114H93.5L124 170H164L130 111C149.42 106.274 163.436 88.9821 163 69C163 43.573 144.848 22 109 22H28Z" stroke="black" stroke-width="12" stroke-linecap="round" stroke-linejoin="round"/>
</svg>
